!!!COM: Anonymous
!!!OTL: La plus dolente qui soit nee
!!!AGN: Song; Chanson; Rondeau
!!!SCT: Ano3109
!!!SCA: Ano3109
!!!SMS: Dijon Chansonnier
!!!folio: 52v-53r
!!!ONB: six other sources
!!!voices: 3
**kern	**kern	**kern
*staff3	*staff2	*staff1
*Ivox	*Ivox	*Ivox
*I"Contra	*I"Tenor	*I"Discantus
*I'C	*I'T	*I'D
*clefF4	*clefG2	*clefG2
*k[]	*k[]	*k[]
*M3/1	*M3/1	*M3/1
*met(O)	*met(O)	*met(O)
=1-	=1-	=1-
0D	1d	0.r
.	1f	.
1E	1g	.
=2	=2	=2
1D	1a	1d
1d	2f	1f
.	2d	.
1c	1e	1g
=3	=3	=3
1r	1d	1a
1d	2r	2f
.	1dd	2d
1A	.	1e
.	2cc	.
=4	=4	=4
1D	2dd	1d
.	2.a	.
2r	.	2r
.	4g	.
2d	2f	1dd
1A	1e	.
.	.	2cc
=5	=5	=5
2d	2d	2ff
2c	2g	1ee
2A	2a	.
2d	2f	1dd
1A	1e	.
.	.	2cc#i
=6	=6	=6
1D	0.d	0dd
1r	.	.
[1D	.	1r
=7	=7	=7
1D]	1r	1dd
1A	1r	1cc
1G	1dd	1b
=8	=8	=8
1A	1cc	1a
1r	1b	2r
.	.	2dd
1A	1a	2cc
.	.	2a
=9	=9	=9
2G	2r	1b
2G	2dd	.
2A	2cc	1a
2F	2a	.
1G	1b	2r
.	.	2g
=10	=10	=10
1D	1a	2a
.	.	4g
.	.	4f
1c	2r	1e
.	2g	.
2r	2a	1d
2d	4g	.
.	4f	.
=11	=11	=11
1A	1e	2r
.	.	2cc
0D	1d	1dd
.	2r	1ff
.	2dd	.
=12	=12	=12
1A	1cc	1ee
1r	2dd	2r
.	4cc	2dd
.	4b	.
1A	1a	2.ee
.	.	4cc
=13	=13	=13
1G	2r	1b
.	2dd	.
1r	2ee	1a
.	2cc	.
1G	1b	2r
.	.	2g
=14	=14	=14
1D	2a	2f
.	1dd	2d
1A	.	1e
.	2cc	.
1D	2dd	2d
.	2ff	2a
=15	=15	=15
2r	4ee	2g
.	4dd	.
2D	1dd	2f
1A	.	1e
.	2cc#i	.
[1DN	[1ddN	1dN
=16	=16	=16
0.D_	1dd]	1r
.	1r	1d
.	1d	2.f
.	.	4g
=17	=17	=17
0D]	2.f	1a
.	4g	.
.	1a	2f
.	.	2d
[1d	2f	2r
.	2d	[2a
=18	=18	=18
1d]	1f	2a]
.	.	2.dd
2r	2e	.
.	.	4cc
1G	1d	1b
2A	2c	[2a
=19	=19	=19
1E	1B	2a]
.	.	2g#i
2F	2A	1a
2D	1d	.
2G	.	2r
2D	2f	2a
=20	=20	=20
2r	1e	2b
2A	.	2cc
2B	0d	2dd
2.d	.	2a
.	.	4b
4c	.	4a
4B	.	4g
4A	.	4f
=21	=21	=21
1A	1c	1e
1D	1d	2r
.	.	2d
1d	2r	2.f
.	2d	.
.	.	4g
=22	=22	=22
2A	2f	2a
2G	2g	2b-i
2F	2a	2a
2G	2b-i	2dd
2r	[1a	1cc
2A	.	.
=23	=23	=23
1B	2a]	1.ff
.	2g	.
2A	2f	.
1c	1g	2.ee
.	.	4dd
2B	2d	[2dd
=24	=24	=24
1A	1e	4dd]
.	.	4cc#i
.	.	4cc#i
.	.	4b
0Dl	0dl	0ddl
==	==	==
*-	*-	*-
!!!RDF**kern: l=long note in original notation
!!!RDF**kern: i=editorial accidental
!!!RDF**kern: N=signum congruentiae
!!!ENC: Chris Gage
!!!END: 2018/09/27
!!!EED: Jesse Rodin
!!!EEV: 2018/11/29
!!!ONB: Translated from MusicXML and edited on 2018/11/29 by Craig Sapp
!!muse2ps: C^@{COM}\n@{SMS}, @{folio}, and six other sources^v95,95,150Q16
